static/img/kroki/818845b9856940532cd78fcbf6ad682a.svg

<?xml version="1.0" encoding="us-ascii" standalone="no"?><svg xmlns="http://www.w3.org/2000/svg" xmlns:xlink="http://www.w3.org/1999/xlink" contentStyleType="text/css" height="374px" preserveAspectRatio="none" style="width:734px;height:374px;" version="1.1" viewBox="0 0 734 374" width="734px" zoomAndPan="magnify"><defs/><g><!--class azure_machine_learning_component_container_base--><g id="elem_azure_machine_learning_component_container_base"><rect codeLine="23" fill="#3D176E" height="39.7891" id="azure_machine_learning_component_container_base" rx="2.5" ry="2.5" style="stroke:#000D19;stroke-width:0.5;" width="485" x="242.5" y="167.79"/><ellipse cx="257.5" cy="187.6845" fill="#ADD1B2" rx="11" ry="11" style="stroke:#181818;stroke-width:1.0;"/><path d="M260.4688,193.3252 Q259.8906,193.622 259.25,193.7627 Q258.6094,193.9189 257.9063,193.9189 Q255.4063,193.9189 254.0781,192.2783 Q252.7656,190.622 252.7656,187.497 Q252.7656,184.372 254.0781,182.7158 Q255.4063,181.0595 257.9063,181.0595 Q258.6094,181.0595 259.25,181.2158 Q259.9063,181.372 260.4688,181.6689 L260.4688,184.3877 Q259.8438,183.8095 259.25,183.5439 Q258.6563,183.2627 258.0313,183.2627 Q256.6875,183.2627 256,184.3408 Q255.3125,185.4033 255.3125,187.497 Q255.3125,189.5908 256,190.6689 Q256.6875,191.7314 258.0313,191.7314 Q258.6563,191.7314 259.25,191.4658 Q259.8438,191.1845 260.4688,190.6064 L260.4688,193.3252 Z " fill="#000000"/><text fill="#D9B8FF" font-family="Helvetica" font-size="17" lengthAdjust="spacing" textLength="443" x="276.5" y="193.5698">azure_machine_learning_component_container_base</text></g><!--class azure_machine_learning_registry_component_container--><g id="elem_azure_machine_learning_registry_component_container"><rect codeLine="26" fill="#3D176E" height="39.7891" id="azure_machine_learning_registry_component_container" rx="2.5" ry="2.5" style="stroke:#000D19;stroke-width:0.5;" width="511" x="39.5" y="328.58"/><ellipse cx="54.5" cy="348.4745" fill="#ADD1B2" rx="11" ry="11" style="stroke:#181818;stroke-width:1.0;"/><path d="M57.4688,354.1152 Q56.8906,354.412 56.25,354.5527 Q55.6094,354.7089 54.9063,354.7089 Q52.4063,354.7089 51.0781,353.0683 Q49.7656,351.412 49.7656,348.287 Q49.7656,345.162 51.0781,343.5058 Q52.4063,341.8495 54.9063,341.8495 Q55.6094,341.8495 56.25,342.0058 Q56.9063,342.162 57.4688,342.4589 L57.4688,345.1777 Q56.8438,344.5995 56.25,344.3339 Q55.6563,344.0527 55.0313,344.0527 Q53.6875,344.0527 53,345.1308 Q52.3125,346.1933 52.3125,348.287 Q52.3125,350.3808 53,351.4589 Q53.6875,352.5214 55.0313,352.5214 Q55.6563,352.5214 56.25,352.2558 Q56.8438,351.9745 57.4688,351.3964 L57.4688,354.1152 Z " fill="#000000"/><text fill="#D9B8FF" font-family="Helvetica" font-size="17" lengthAdjust="spacing" textLength="469" x="73.5" y="354.3598">azure_machine_learning_registry_component_container</text></g><!--class azure_proxy_resource--><g id="elem_azure_proxy_resource"><rect codeLine="29" fill="#3D176E" height="39.7891" id="azure_proxy_resource" rx="2.5" ry="2.5" style="stroke:#000D19;stroke-width:0.5;" width="224" x="373" y="7"/><ellipse cx="388" cy="26.8945" fill="#ADD1B2" rx="11" ry="11" style="stroke:#181818;stroke-width:1.0;"/><path d="M390.9688,32.5352 Q390.3906,32.832 389.75,32.9727 Q389.1094,33.1289 388.4063,33.1289 Q385.9063,33.1289 384.5781,31.4883 Q383.2656,29.832 383.2656,26.707 Q383.2656,23.582 384.5781,21.9258 Q385.9063,20.2695 388.4063,20.2695 Q389.1094,20.2695 389.75,20.4258 Q390.4063,20.582 390.9688,20.8789 L390.9688,23.5977 Q390.3438,23.0195 389.75,22.7539 Q389.1563,22.4727 388.5313,22.4727 Q387.1875,22.4727 386.5,23.5508 Q385.8125,24.6133 385.8125,26.707 Q385.8125,28.8008 386.5,29.8789 Q387.1875,30.9414 388.5313,30.9414 Q389.1563,30.9414 389.75,30.6758 Q390.3438,30.3945 390.9688,29.8164 L390.9688,32.5352 Z " fill="#000000"/><text fill="#D9B8FF" font-family="Helvetica" font-size="17" lengthAdjust="spacing" textLength="182" x="407" y="32.7798">azure_proxy_resource</text></g><!--class microsoft_resource--><g id="elem_microsoft_resource"><rect codeLine="32" fill="#3D176E" height="39.7891" id="microsoft_resource" rx="2.5" ry="2.5" style="stroke:#000D19;stroke-width:0.5;" width="200" x="7" y="167.79"/><ellipse cx="22" cy="187.6845" fill="#ADD1B2" rx="11" ry="11" style="stroke:#181818;stroke-width:1.0;"/><path d="M24.9688,193.3252 Q24.3906,193.622 23.75,193.7627 Q23.1094,193.9189 22.4063,193.9189 Q19.9063,193.9189 18.5781,192.2783 Q17.2656,190.622 17.2656,187.497 Q17.2656,184.372 18.5781,182.7158 Q19.9063,181.0595 22.4063,181.0595 Q23.1094,181.0595 23.75,181.2158 Q24.4063,181.372 24.9688,181.6689 L24.9688,184.3877 Q24.3438,183.8095 23.75,183.5439 Q23.1563,183.2627 22.5313,183.2627 Q21.1875,183.2627 20.5,184.3408 Q19.8125,185.4033 19.8125,187.497 Q19.8125,189.5908 20.5,190.6689 Q21.1875,191.7314 22.5313,191.7314 Q23.1563,191.7314 23.75,191.4658 Q24.3438,191.1845 24.9688,190.6064 L24.9688,193.3252 Z " fill="#000000"/><text fill="#D9B8FF" font-family="Helvetica" font-size="17" lengthAdjust="spacing" textLength="158" x="41" y="193.5698">microsoft_resource</text></g><!--class resource--><g id="elem_resource"><rect codeLine="35" fill="#3D176E" height="39.7891" id="resource" rx="2.5" ry="2.5" style="stroke:#000D19;stroke-width:0.5;" width="113" x="50.5" y="7"/><ellipse cx="65.5" cy="26.8945" fill="#ADD1B2" rx="11" ry="11" style="stroke:#181818;stroke-width:1.0;"/><path d="M68.4688,32.5352 Q67.8906,32.832 67.25,32.9727 Q66.6094,33.1289 65.9063,33.1289 Q63.4063,33.1289 62.0781,31.4883 Q60.7656,29.832 60.7656,26.707 Q60.7656,23.582 62.0781,21.9258 Q63.4063,20.2695 65.9063,20.2695 Q66.6094,20.2695 67.25,20.4258 Q67.9063,20.582 68.4688,20.8789 L68.4688,23.5977 Q67.8438,23.0195 67.25,22.7539 Q66.6563,22.4727 66.0313,22.4727 Q64.6875,22.4727 64,23.5508 Q63.3125,24.6133 63.3125,26.707 Q63.3125,28.8008 64,29.8789 Q64.6875,30.9414 66.0313,30.9414 Q66.6563,30.9414 67.25,30.6758 Q67.8438,30.3945 68.4688,29.8164 L68.4688,32.5352 Z " fill="#000000"/><text fill="#D9B8FF" font-family="Helvetica" font-size="17" lengthAdjust="spacing" textLength="71" x="84.5" y="32.7798">resource</text></g><!--reverse link azure_proxy_resource to azure_machine_learning_component_container_base--><g id="link_azure_proxy_resource_azure_machine_learning_component_container_base"><path codeLine="38" d="M485,65.05 C485,95.57 485,136.9 485,167.46 " fill="none" id="azure_proxy_resource-backto-azure_machine_learning_component_container_base" style="stroke:#FFAF37;stroke-width:2.0;"/><polygon fill="none" points="485,47.05,479,65.05,491,65.05,485,47.05" style="stroke:#FFAF37;stroke-width:2.0;"/></g><!--reverse link azure_machine_learning_component_container_base to azure_machine_learning_registry_component_container--><g id="link_azure_machine_learning_component_container_base_azure_machine_learning_registry_component_container"><path codeLine="39" d="M448.2682,219.3827 C411.7482,249.9027 354.57,297.69 318,328.25 " fill="none" id="azure_machine_learning_component_container_base-backto-azure_machine_learning_registry_component_container" style="stroke:#FFAF37;stroke-width:2.0;"/><polygon fill="none" points="462.08,207.84,444.4206,214.7787,452.1157,223.9866,462.08,207.84" style="stroke:#FFAF37;stroke-width:2.0;"/></g><!--reverse link microsoft_resource to azure_machine_learning_registry_component_container--><g id="link_microsoft_resource_azure_machine_learning_registry_component_container"><path codeLine="40" d="M143.4306,219.4555 C179.5606,249.9755 236.06,297.69 272.24,328.25 " fill="none" id="microsoft_resource-backto-azure_machine_learning_registry_component_container" style="stroke:#FFAF37;stroke-width:2.0;"/><polygon fill="none" points="129.68,207.84,139.5588,224.0391,147.3025,214.872,129.68,207.84" style="stroke:#FFAF37;stroke-width:2.0;"/></g><!--reverse link resource to microsoft_resource--><g id="link_resource_microsoft_resource"><path codeLine="41" d="M107,65.05 C107,95.57 107,136.9 107,167.46 " fill="none" id="resource-backto-microsoft_resource" style="stroke:#FFAF37;stroke-width:2.0;"/><polygon fill="none" points="107,47.05,101,65.05,113,65.05,107,47.05" style="stroke:#FFAF37;stroke-width:2.0;"/></g><!--SRC=[dP91Jy9048Nl_HMRS2O1YGA95oGnUY56l3VJtLdOqDrfPhTYKV-xHTIKjfJWRJFlcpTl9his2WNQB1J2easGVUGtncN0OCMCcRPpIeb5JslGet5Tl2SNpW8Bi2WUC7t5O2JKYPUraHk7tekhYdG7ShDYofqws0S6vqi9NQXGynIyduN09ia3LiAeQJBHkaxMJNiZDHpVO0CZLiW_o60mKCDf7JaxgdFlFs9fTYY6rQCjA60ZPcF4DzMPSazKGZOM_TLFPdm2fOnRYUjAxVcGYHtoKNsv1aNRFQqXzTKnFY0ZXIB3UMChd4wK7hV2ZwVWIEvF9s2NCyOMvDeuZ5C4TkNqM9BDo9LVf7ov0AN6SG8UnNiKVNQtCgwC3roqUJJRCwQtekpnbBCyihT6CddIeLKzhhLwtNxq-_rB5umkFKZdbAvRH2qB_j-iPj7qZhu0]--></g></svg>

<svg xmlns="http://www.w3.org/2000/svg" width="734" height="374" viewBox="0 0 734 374"><rect width="485" height="39.789" x="242.5" y="167.79" fill="#3D176E" rx="2.5" ry="2.5" style="stroke:#000d19;stroke-width:.5"/><circle cx="257.5" cy="187.685" r="11" fill="#ADD1B2" style="stroke:#181818;stroke-width:1"/><path d="M260.469 193.325q-.578.297-1.219.438-.64.156-1.344.156-2.5 0-3.828-1.64-1.312-1.657-1.312-4.782t1.312-4.781q1.328-1.656 3.828-1.656.703 0 1.344.156.656.156 1.219.453v2.719q-.625-.578-1.219-.844-.594-.281-1.219-.281-1.344 0-2.031 1.078-.687 1.062-.687 3.156t.687 3.172q.688 1.062 2.031 1.062.625 0 1.219-.265.594-.281 1.219-.86z"/><text x="276.5" y="193.57" fill="#D9B8FF" font-family="Helvetica" font-size="17" textLength="443">azure_machine_learning_component_container_base</text><rect width="511" height="39.789" x="39.5" y="328.58" fill="#3D176E" rx="2.5" ry="2.5" style="stroke:#000d19;stroke-width:.5"/><circle cx="54.5" cy="348.474" r="11" fill="#ADD1B2" style="stroke:#181818;stroke-width:1"/><path d="M57.469 354.115q-.578.297-1.219.438-.64.156-1.344.156-2.5 0-3.828-1.64-1.312-1.657-1.312-4.782t1.312-4.781q1.328-1.656 3.828-1.656.703 0 1.344.156.656.156 1.219.453v2.719q-.625-.579-1.219-.844-.594-.281-1.219-.281-1.343 0-2.031 1.078-.687 1.062-.687 3.156t.687 3.172q.688 1.062 2.031 1.062.625 0 1.219-.265.594-.281 1.219-.86z"/><text x="73.5" y="354.36" fill="#D9B8FF" font-family="Helvetica" font-size="17" textLength="469">azure_machine_learning_registry_component_container</text><rect width="224" height="39.789" x="373" y="7" fill="#3D176E" rx="2.5" ry="2.5" style="stroke:#000d19;stroke-width:.5"/><circle cx="388" cy="26.895" r="11" fill="#ADD1B2" style="stroke:#181818;stroke-width:1"/><path d="M390.969 32.535q-.578.297-1.219.438-.64.156-1.344.156-2.5 0-3.828-1.64-1.312-1.657-1.312-4.782t1.312-4.781q1.328-1.656 3.828-1.656.703 0 1.344.156.656.156 1.219.453v2.719q-.625-.578-1.219-.844-.594-.281-1.219-.281-1.344 0-2.031 1.078-.687 1.062-.687 3.156t.687 3.172q.688 1.062 2.031 1.062.625 0 1.219-.265.594-.281 1.219-.86z"/><text x="407" y="32.78" fill="#D9B8FF" font-family="Helvetica" font-size="17" textLength="182">azure_proxy_resource</text><rect width="200" height="39.789" x="7" y="167.79" fill="#3D176E" rx="2.5" ry="2.5" style="stroke:#000d19;stroke-width:.5"/><circle cx="22" cy="187.685" r="11" fill="#ADD1B2" style="stroke:#181818;stroke-width:1"/><path d="M24.969 193.325q-.578.297-1.219.438-.64.156-1.344.156-2.5 0-3.828-1.64-1.312-1.657-1.312-4.782t1.312-4.781q1.328-1.656 3.828-1.656.703 0 1.344.156.656.156 1.219.453v2.719q-.625-.578-1.219-.844-.594-.281-1.219-.281-1.343 0-2.031 1.078-.687 1.062-.687 3.156t.687 3.172q.688 1.062 2.031 1.062.625 0 1.219-.265.594-.281 1.219-.86z"/><text x="41" y="193.57" fill="#D9B8FF" font-family="Helvetica" font-size="17" textLength="158">microsoft_resource</text><rect width="113" height="39.789" x="50.5" y="7" fill="#3D176E" rx="2.5" ry="2.5" style="stroke:#000d19;stroke-width:.5"/><circle cx="65.5" cy="26.895" r="11" fill="#ADD1B2" style="stroke:#181818;stroke-width:1"/><path d="M68.469 32.535q-.578.297-1.219.438-.64.156-1.344.156-2.5 0-3.828-1.64-1.312-1.657-1.312-4.782t1.312-4.781q1.328-1.656 3.828-1.656.703 0 1.344.156.656.156 1.219.453v2.719q-.625-.578-1.219-.844-.594-.281-1.219-.281-1.344 0-2.031 1.078-.687 1.062-.687 3.156T64 29.879q.688 1.062 2.031 1.062.625 0 1.219-.265.594-.281 1.219-.86z"/><text x="84.5" y="32.78" fill="#D9B8FF" font-family="Helvetica" font-size="17" textLength="71">resource</text><path fill="none" d="M485 65.05v102.41m0-120.41-6 18h12zm-36.732 172.333C411.748 249.903 354.57 297.69 318 328.25m144.08-120.41-17.66 6.939 7.696 9.208z" style="stroke:#ffaf37;stroke-width:2"/><g fill="none"><path d="M143.43 219.456c36.13 30.52 92.63 78.234 128.81 108.794" style="stroke:#ffaf37;stroke-width:2"/><path d="m129.68 207.84 9.879 16.2 7.744-9.168z" style="stroke:#ffaf37;stroke-width:2"/></g><path fill="none" d="M107 65.05v102.41m0-120.41-6 18h12z" style="stroke:#ffaf37;stroke-width:2"/></svg>
